X:4
T:Jimmy Ward's Jig
R:jig
D:Matt Molloy: Heathery Breeze
M:6/8
K:G
~G3 GAB|AGE GED|~G3 AGE|GED DEF|
~G3 GAB|AGE GAB|c2A BGE|1 DDD D2F:|2 DDD D2B||
|:c2A BAG|~A3 AGE|c2A BGE|EDE ~G3|
c2A BAG|ABA ABc|dcA AGE|1 GED D2B:|2 GED ~D3||
